X: 1
T: The Boys Of Bluehill
R: hornpipe
M: 4/4
L: 1/8
K: Dmaj
||FA| BA FA DA FA| BA (3Bcd e2 de |fa gf eg fe|df ed B2 dB|
| (3ABA FA DA FA| BA (3Bcd e2 de |fa gf eg fe|d2 f2 d2 :|
|: fg| af df a2 g2 | ef ga b2 ag |fa gf eg fe |df ed B2 dB|
| BA FA D2 FA| BA (3Bcd e2 de |fa gf eg fe|d2 f2 d2 :|

